X:408
T:Last Night's Joy
R:reel
M:C|
K:Dmix
~A3G FGAB|cG~G2 EG~G2|~A3G FGAB|1cdeg fddc:|2cdeg fddc||
d2fd adfd|~c2ec gcec|~d2fd adfd|ceag fddc|
d2fd adfd|~c2ec gceg|afge fded|^cdeg fdd=c||
